dist/assets/img/icons/filter.svg

<svg width="19" height="18" viewBox="0 0 19 18" fill="none" xmlns="http://www.w3.org/2000/svg">
<g clip-path="url(#clip0_2_64)">
<g opacity="0.5">
<path d="M19 2.70001H0V3.90001H19V2.70001Z" fill="white"/>
<path d="M19 8.39996H0V9.59996H19V8.39996Z" fill="white"/>
<path d="M19 14.1H0V15.3H19V14.1Z" fill="white"/>
<path d="M5.23002 5.19996C6.27936 5.19996 7.13002 4.3493 7.13002 3.29996C7.13002 2.25062 6.27936 1.39996 5.23002 1.39996C4.18068 1.39996 3.33002 2.25062 3.33002 3.29996C3.33002 4.3493 4.18068 5.19996 5.23002 5.19996Z" fill="white"/>
<path d="M5.23001 5.79999C3.85001 5.79999 2.73001 4.67999 2.73001 3.29999C2.73001 1.91999 3.85001 0.799988 5.23001 0.799988C6.61001 0.799988 7.73001 1.91999 7.73001 3.29999C7.73001 4.67999 6.61001 5.79999 5.23001 5.79999ZM5.23001 1.99999C4.51001 1.99999 3.93001 2.57999 3.93001 3.29999C3.93001 4.01999 4.51001 4.59999 5.23001 4.59999C5.95001 4.59999 6.53001 4.01999 6.53001 3.29999C6.53001 2.57999 5.95001 1.99999 5.23001 1.99999Z" fill="white"/>
<path d="M12.82 10.9C13.8694 10.9 14.72 10.0493 14.72 8.99998C14.72 7.95063 13.8694 7.09998 12.82 7.09998C11.7707 7.09998 10.92 7.95063 10.92 8.99998C10.92 10.0493 11.7707 10.9 12.82 10.9Z" fill="white"/>
<path d="M12.82 11.5C11.44 11.5 10.32 10.38 10.32 9C10.32 7.62 11.44 6.5 12.82 6.5C14.2 6.5 15.32 7.62 15.32 9C15.32 10.38 14.2 11.5 12.82 11.5ZM12.82 7.7C12.1 7.7 11.52 8.28 11.52 9C11.52 9.72 12.1 10.3 12.82 10.3C13.54 10.3 14.12 9.72 14.12 9C14.12 8.28 13.54 7.7 12.82 7.7Z" fill="white"/>
<path d="M5.23002 16.6C6.27936 16.6 7.13002 15.7493 7.13002 14.7C7.13002 13.6506 6.27936 12.8 5.23002 12.8C4.18068 12.8 3.33002 13.6506 3.33002 14.7C3.33002 15.7493 4.18068 16.6 5.23002 16.6Z" fill="white"/>
<path d="M5.23001 17.2C3.85001 17.2 2.73001 16.08 2.73001 14.7C2.73001 13.32 3.85001 12.2 5.23001 12.2C6.61001 12.2 7.73001 13.32 7.73001 14.7C7.73001 16.08 6.61001 17.2 5.23001 17.2ZM5.23001 13.4C4.51001 13.4 3.93001 13.98 3.93001 14.7C3.93001 15.42 4.51001 16 5.23001 16C5.95001 16 6.53001 15.42 6.53001 14.7C6.53001 13.98 5.95001 13.4 5.23001 13.4Z" fill="white"/>
</g>
</g>
<defs>
<clipPath id="clip0_2_64">
<rect width="19" height="16.4" fill="white" transform="translate(0 0.799988)"/>
</clipPath>
</defs>
</svg>

<svg width="19" height="18" fill="none" xmlns="http://www.w3.org/2000/svg"><g opacity=".5" fill="#fff" clip-path="url(#clip0_2_64)"><path d="M19 2.7H0v1.2h19V2.7zm0 5.7H0v1.2h19V8.4zm0 5.7H0v1.2h19v-1.2z"/><path d="M5.23 5.2a1.9 1.9 0 100-3.8 1.9 1.9 0 000 3.8z"/><path d="M5.23 5.8a2.5 2.5 0 010-5 2.5 2.5 0 010 5zm0-3.8c-.72 0-1.3.58-1.3 1.3 0 .72.58 1.3 1.3 1.3.72 0 1.3-.58 1.3-1.3 0-.72-.58-1.3-1.3-1.3zm7.59 8.9a1.9 1.9 0 100-3.8 1.9 1.9 0 000 3.8z"/><path d="M12.82 11.5a2.5 2.5 0 010-5 2.5 2.5 0 010 5zm0-3.8c-.72 0-1.3.58-1.3 1.3 0 .72.58 1.3 1.3 1.3.72 0 1.3-.58 1.3-1.3 0-.72-.58-1.3-1.3-1.3zm-7.59 8.9a1.9 1.9 0 100-3.8 1.9 1.9 0 000 3.8z"/><path d="M5.23 17.2a2.5 2.5 0 010-5 2.5 2.5 0 010 5zm0-3.8c-.72 0-1.3.58-1.3 1.3 0 .72.58 1.3 1.3 1.3.72 0 1.3-.58 1.3-1.3 0-.72-.58-1.3-1.3-1.3z"/></g><defs><clipPath id="clip0_2_64"><path fill="#fff" transform="translate(0 .8)" d="M0 0h19v16.4H0z"/></clipPath></defs></svg>
